X:796
T:Reel 796
M:4/4
K:Emin
L:1/8
ba|gafd edBA|GAFG edBA||GABc d2ef|gfed e2gf:||2GBef g2Be|dBAG E2|Bd|e2ed efge|deBd gefd|e2ed efge|deBd edBd|eded gdBc|dedB Afdf|g2ge f2fd|Beed efgf|
